dist/assets/image/Instagram.svg

<svg width="30" height="30" viewBox="0 0 30 30" fill="none" xmlns="http://www.w3.org/2000/svg">
<path fill-rule="evenodd" clip-rule="evenodd" d="M10 2.5H20C24.1421 2.5 27.5 5.85786 27.5 10V20C27.5 24.1421 24.1421 27.5 20 27.5H10C5.85786 27.5 2.5 24.1421 2.5 20V10C2.5 5.85786 5.85786 2.5 10 2.5ZM10 5C7.23858 5 5 7.23857 5 10V20C5 22.7614 7.23858 25 10 25H20C22.7614 25 25 22.7614 25 20V10C25 7.23857 22.7614 5 20 5H10ZM15 21.25C11.5482 21.25 8.75 18.4518 8.75 15C8.75 11.5482 11.5482 8.75 15 8.75C18.4518 8.75 21.25 11.5482 21.25 15C21.25 18.4518 18.4518 21.25 15 21.25ZM15 18.75C17.0711 18.75 18.75 17.0711 18.75 15C18.75 12.9289 17.0711 11.25 15 11.25C12.9289 11.25 11.25 12.9289 11.25 15C11.25 17.0711 12.9289 18.75 15 18.75ZM21.25 10C20.5596 10 20 9.44036 20 8.75C20 8.05964 20.5596 7.5 21.25 7.5C21.9404 7.5 22.5 8.05964 22.5 8.75C22.5 9.44036 21.9404 10 21.25 10Z" fill="#828282"/>
</svg>

<svg xmlns="http://www.w3.org/2000/svg" width="30" height="30" fill="none"><path fill-rule="evenodd" d="M10 2.5h10a7.5 7.5 0 0 1 7.5 7.5v10a7.5 7.5 0 0 1-7.5 7.5H10A7.5 7.5 0 0 1 2.5 20V10A7.5 7.5 0 0 1 10 2.5zM10 5a5 5 0 0 0-5 5v10a5 5 0 0 0 5 5h10a5 5 0 0 0 5-5V10a5 5 0 0 0-5-5H10zm5 16.25a6.25 6.25 0 1 1 0-12.5 6.25 6.25 0 1 1 0 12.5zm0-2.5a3.75 3.75 0 1 0 0-7.5 3.75 3.75 0 1 0 0 7.5zM21.25 10a1.25 1.25 0 1 1 0-2.5 1.25 1.25 0 1 1 0 2.5z" fill="#828282"/></svg>
